X: 1
T: Theme from Concerto #2 in Eb for Horn, K417
T: "The Mozart" Jig
O: arr. Dudley Laufman
C: W.A.Mozart (1783)
R: jig
Z: John Chambers <jc:trillian.mit.edu>
M: 6/8
L: 1/8
K: C
G \
|: "C"c3 cde | "Am"c3 cBc | "Dm"def edc | "G7"B3 d3 \
| "C"g3 gfg | "F"a2f "G7"def | "C"ged "Am"cde | "F"fdc "G7"BAG :|
|: "C"c2c e2g | "F"a2f "G7"def | "C"g2e "Am"cBc | "Dm"d2B "G7"G2G \
| "C"c2c e2g | "G7"g2f def | "C"gec "G7"ded | "C"c3 cz2 :|
